people/instagram-outline.svg

<svg xmlns="http://www.w3.org/2000/svg" viewBox="0 0 16 16"><defs><style>.cls-1{fill:#231f20}</style></defs><title>instagram-outline</title><g id="Layer_1" data-name="Layer 1"><path class="cls-1" d="M13 .006H3A2.992 2.992 0 0 0 .01 3v10A2.993 2.993 0 0 0 3 15.986h10A2.993 2.993 0 0 0 15.99 13V3A2.992 2.992 0 0 0 13 .006zM13.954 13a.954.954 0 0 1-.954.95H3a.954.954 0 0 1-.954-.95V7.621h1.78a4.221 4.221 0 0 0-.019.375 4.193 4.193 0 1 0 8.387 0c0-.127-.008-.251-.019-.375h1.779zM5.842 8A2.158 2.158 0 1 1 8 10.154 2.158 2.158 0 0 1 5.842 8zm8.112-2.411h-2.527a4.187 4.187 0 0 0-6.855 0H2.046V3A.954.954 0 0 1 3 2.043h10a.954.954 0 0 1 .954.957z"/><rect class="cls-1" x="11.247" y="2.816" width="1.968" height="1.968" rx=".62" ry=".62"/></g></svg>

<svg xmlns="http://www.w3.org/2000/svg" viewBox="0 0 16 16"><defs><style>.cls-1{fill:#231f20;}</style></defs><title>instagram-outline</title><g id="Layer_1" data-name="Layer 1"><path class="cls-1" d="M13,.006H3A2.992,2.992,0,0,0,.01,3V13A2.993,2.993,0,0,0,3,15.986H13A2.993,2.993,0,0,0,15.99,13V3A2.992,2.992,0,0,0,13,.006ZM13.954,13A.954.954,0,0,1,13,13.95H3A.954.954,0,0,1,2.046,13V7.621H3.826c-.011.124-.019.248-.019.375a4.193,4.193,0,1,0,8.387,0c0-.127-.008-.251-.019-.375h1.779ZM5.842,8A2.158,2.158,0,1,1,8,10.154,2.158,2.158,0,0,1,5.842,8Zm8.112-2.411H11.427a4.187,4.187,0,0,0-6.855,0H2.046V3A.954.954,0,0,1,3,2.043H13A.954.954,0,0,1,13.954,3Z"/><rect class="cls-1" x="11.247" y="2.816" width="1.968" height="1.968" rx="0.62" ry="0.62"/></g></svg>
